apps/scalable/mintreport.svg

<svg xmlns="http://www.w3.org/2000/svg" style="isolation:isolate" width="256" height="256"><defs><filter id="a" width="270.648" height="254.338" x="-7.32" y="2.95" filterUnits="userSpaceOnUse"><feGaussianBlur xmlns="http://www.w3.org/2000/svg" in="SourceGraphic" stdDeviation="4.294"/><feOffset xmlns="http://www.w3.org/2000/svg" dy="4" result="pf_100_offsetBlur"/><feFlood xmlns="http://www.w3.org/2000/svg" flood-opacity=".4"/><feComposite xmlns="http://www.w3.org/2000/svg" in2="pf_100_offsetBlur" operator="in" result="pf_100_dropShadow"/><feBlend xmlns="http://www.w3.org/2000/svg" in="SourceGraphic" in2="pf_100_dropShadow"/></filter></defs><g filter="url(#a)"><linearGradient id="b" x1=".736" x2=".267" y1="1.075" y2=".005" gradientTransform="matrix(244.648 0 0 228.338 5.676 11.947)" gradientUnits="userSpaceOnUse"><stop offset="0%" stop-color="#aae173"/><stop offset="100%" stop-color="#f3ffe7"/></linearGradient><path fill="url(#b)" d="M165.685 11.947c74.055 0 84.639 10.557 84.639 84.544v59.251c0 73.986-10.584 84.543-84.639 84.543h-75.37c-74.055 0-84.639-10.557-84.639-84.543V96.491c0-73.987 10.584-84.544 84.639-84.544h75.37z"/></g><g opacity=".4"><linearGradient id="c" x1=".517" x2=".517" y2="1"><stop offset="0%" stop-color="#fff"/><stop offset="12.5%" stop-opacity=".098" stop-color="#fff"/><stop offset="92.5%" stop-opacity=".098"/><stop offset="100%" stop-opacity=".498"/></linearGradient><path fill="none" stroke="url(#c)" stroke-linecap="round" stroke-linejoin="round" stroke-width="4.077" d="M165.685 11.947c74.055 0 84.639 10.557 84.639 84.544v59.251c0 73.986-10.584 84.543-84.639 84.543h-75.37c-74.055 0-84.639-10.557-84.639-84.543V96.491c0-73.987 10.584-84.544 84.639-84.544h75.37z" vector-effect="non-scaling-stroke"/></g><g filter="url(#J1UbZNdgiG4m4XSMqP2a5pHYTcWemACb)"><path fill="#464655" d="M137.916 63.436a2.494 2.494 0 0 0-3.029-1.817c-7.038 1.758-11.765 7.68-14.346 11.926l-2.816-1.126a5.956 5.956 0 0 0-4.424 0l-2.816 1.126c-2.581-4.246-7.309-10.167-14.346-11.926a2.496 2.496 0 1 0-1.212 4.844c5.065 1.268 8.738 5.67 10.922 9.108-1.712 1.077-2.824 2.919-2.824 4.991a5.957 5.957 0 0 0 5.957 5.957h13.061a5.957 5.957 0 0 0 5.958-5.957c0-2.072-1.112-3.914-2.824-4.991 2.184-3.438 5.856-7.84 10.922-9.108a2.496 2.496 0 0 0 1.817-3.027zM172.954 143.962a2.51 2.51 0 0 1-.927-.178l-12.487-4.995a2.499 2.499 0 0 1-1.213-1.035c-6.529-10.882-12.833-11.273-12.895-11.275-1.358-.059-2.448-1.193-2.419-2.549.03-1.358 1.111-2.446 2.47-2.446.895 0 8.835.371 16.683 12.975l11.718 4.685a2.499 2.499 0 0 1-.93 4.818zM142.986 111.494a2.498 2.498 0 0 1-.791-4.866l6.604-2.202c1.189-2.168 4.74-9.542 6.7-23.256a2.497 2.497 0 0 1 .839-1.536l12.488-10.795a2.498 2.498 0 0 1 3.265 3.78l-11.783 10.188c-2.591 17.182-7.538 24.758-7.751 25.077a2.496 2.496 0 0 1-1.288.983l-7.493 2.498a2.512 2.512 0 0 1-.79.129zM170.459 188.917c-.733 0-1.458-.32-1.951-.937l-9.99-12.488a2.515 2.515 0 0 1-.473-.956l-3.905-15.619a4.987 4.987 0 0 0-3.634-3.634l-5.629-1.407a2.496 2.496 0 1 1 1.212-4.844l5.629 1.407a9.967 9.967 0 0 1 7.268 7.268l3.772 15.09 9.65 12.061a2.498 2.498 0 0 1-1.949 4.059zM58.072 143.962a2.499 2.499 0 0 1-.93-4.817l11.719-4.685c7.847-12.605 15.787-12.976 16.682-12.976a2.497 2.497 0 0 1 .047 4.995c-.217.015-6.443.53-12.89 11.276a2.498 2.498 0 0 1-1.214 1.034l-12.487 4.995a2.51 2.51 0 0 1-.927.178zM88.04 111.494c-.26 0-.528-.042-.79-.129l-7.492-2.498a2.493 2.493 0 0 1-1.288-.983c-.214-.319-5.161-7.895-7.751-25.077L58.934 72.619a2.499 2.499 0 0 1 3.266-3.781l12.488 10.795c.456.396.755.942.839 1.537 1.958 13.704 5.506 21.078 6.7 23.255l6.603 2.203a2.498 2.498 0 1 1-.79 4.866zM60.567 188.917a2.498 2.498 0 0 1-1.949-4.059l9.65-12.061 3.772-15.09a9.967 9.967 0 0 1 7.268-7.268l5.629-1.407a2.496 2.496 0 1 1 1.212 4.844l-5.629 1.407a4.987 4.987 0 0 0-3.634 3.634l-3.905 15.619a2.515 2.515 0 0 1-.473.956l-9.99 12.488a2.5 2.5 0 0 1-1.951.937z"/><circle fill="#464655" r="1" transform="translate(115.512 156.448) scale(32.468)" vector-effect="non-scaling-stroke"/><path fill="#464655" d="M88.04 111.49h54.945v14.985H88.04z"/><path fill="#5B5D6E" d="M120.151 117.131l5.617-2.247a12.508 12.508 0 0 1 4.638-.893h12.384a4.994 4.994 0 0 0 4.973-5.457l-.594-6.383c-.955-10.274-9.576-18.13-19.894-18.13h-23.524c-10.318 0-18.939 7.856-19.895 18.13l-.593 6.383a4.995 4.995 0 0 0 4.973 5.458h12.384c1.589 0 3.163.303 4.638.893l5.617 2.246a12.488 12.488 0 0 0 9.276 0zM121.52 130.907l5.889-7.901a9.988 9.988 0 0 1 8.01-4.02h-5.014c-.954 0-1.898.182-2.783.536l-5.616 2.247a17.424 17.424 0 0 1-6.493 1.25 17.42 17.42 0 0 1-6.493-1.25l-5.617-2.247a7.491 7.491 0 0 0-2.783-.536h-5.013a9.991 9.991 0 0 1 8.01 4.02l5.889 7.901c2.996 4.019 9.018 4.019 12.014 0zM187.941 61.544l-2.498 12.487 2.498 2.498v54.945h4.995V76.529l2.497-2.498-2.497-12.487h-4.995z"/><path fill="#C3E678" d="M190.438 191.414c5.449 0 9.801-4.537 9.574-9.981l-2.082-49.959h-14.985l-2.081 49.959c-.227 5.444 4.125 9.981 9.574 9.981z"/><path fill="#A5D76E" d="M187.947 181.432l1.539-49.958h-6.54l-2.082 49.958c-.227 5.444 4.125 9.982 9.574 9.982.923 0 1.795-.172 2.638-.414-3.058-1.19-5.269-5.045-5.129-9.568z"/><path fill="#87C36E" d="M190.438 183.922a2.499 2.499 0 0 1-2.498-2.498v-39.96a2.498 2.498 0 1 1 4.996 0v39.96a2.499 2.499 0 0 1-2.498 2.498z"/><path fill="#464655" d="M187.94 123.98h4.995v7.493h-4.995z"/><path fill="#A5D76E" d="M197.931 133.972h-14.985a2.499 2.499 0 0 1 0-4.996h14.985a2.498 2.498 0 1 1 0 4.996z"/><path fill="#87C36E" d="M187.941 131.474a2.498 2.498 0 0 1 2.497-2.498h-7.492a2.498 2.498 0 0 0 0 4.995h7.492a2.496 2.496 0 0 1-2.497-2.497z"/><path fill="#C3E678" d="M109.505 130.907l-5.889-7.901a9.988 9.988 0 0 0-8.009-4.02h-9.403a4.294 4.294 0 0 0-4.276 3.897l-2.674 28.744c-1.739 18.692 10.932 35.118 28.502 38.924 1.519.329 2.984-.758 3.068-2.31l2.849-52.695c.055-1.02-.529-1.94-1.449-2.385a7.415 7.415 0 0 1-2.719-2.254zM151.772 151.627l-2.674-28.744a4.294 4.294 0 0 0-4.276-3.897h-9.403a9.99 9.99 0 0 0-8.009 4.02l-5.889 7.901a7.407 7.407 0 0 1-2.719 2.254c-.919.446-1.503 1.365-1.448 2.385l2.848 52.695c.084 1.552 1.55 2.639 3.069 2.31 17.569-3.806 30.24-20.232 28.501-38.924z"/><path fill="#505161" d="M121.038 84.021h-17.287c-10.318 0-18.939 7.856-19.894 18.13l-.594 6.383a4.994 4.994 0 0 0 4.973 5.457h12.292a25.73 25.73 0 0 1-.021-4.995l.636-6.845c.956-10.274 9.577-18.13 19.895-18.13z"/><path fill="#A5D76E" d="M98.19 152.323l2.524-31.865c-1.533-.918-3.274-1.472-5.107-1.472h-9.403a4.294 4.294 0 0 0-4.276 3.897l-2.674 28.744c-1.739 18.692 10.932 35.118 28.502 38.924 1.381.299 2.664-.597 2.959-1.923-8.58-8.677-13.666-21.903-12.525-36.305z"/></g><defs><filter id="J1UbZNdgiG4m4XSMqP2a5pHYTcWemACb" width="204.857" height="189.87" x="25.57" y="35.54" filterUnits="userSpaceOnUse"><feGaussianBlur xmlns="http://www.w3.org/2000/svg" in="SourceGraphic" stdDeviation="4.294"/><feOffset xmlns="http://www.w3.org/2000/svg" dy="4" result="pf_100_offsetBlur"/><feFlood xmlns="http://www.w3.org/2000/svg" flood-opacity=".4"/><feComposite xmlns="http://www.w3.org/2000/svg" in2="pf_100_offsetBlur" operator="in" result="pf_100_dropShadow"/><feBlend xmlns="http://www.w3.org/2000/svg" in="SourceGraphic" in2="pf_100_dropShadow"/></filter></defs></svg>

<svg xmlns="http://www.w3.org/2000/svg" style="isolation:isolate" width="256" height="256" viewBox="0 0 256 256">
 <defs>
  <filter id="6zDKyaJOdsBAr3q9pbKXVteFVZ8CuJ9E" width="270.648" height="254.338" x="-7.32" y="2.95" filterUnits="userSpaceOnUse">
   <feGaussianBlur xmlns="http://www.w3.org/2000/svg" in="SourceGraphic" stdDeviation="4.294"/>
   <feOffset xmlns="http://www.w3.org/2000/svg" dx="0" dy="4" result="pf_100_offsetBlur"/>
   <feFlood xmlns="http://www.w3.org/2000/svg" flood-opacity=".4"/>
   <feComposite xmlns="http://www.w3.org/2000/svg" in2="pf_100_offsetBlur" operator="in" result="pf_100_dropShadow"/>
   <feBlend xmlns="http://www.w3.org/2000/svg" in="SourceGraphic" in2="pf_100_dropShadow" mode="normal"/>
  </filter>
 </defs>
 <g filter="url(#6zDKyaJOdsBAr3q9pbKXVteFVZ8CuJ9E)">
  <linearGradient id="_lgradient_8" x1=".736" x2=".267" y1="1.075" y2=".005" gradientTransform="matrix(244.648,0,0,228.338,5.676,11.947)" gradientUnits="userSpaceOnUse">
   <stop offset="0%" style="stop-color:rgb(170,225,115)"/>
   <stop offset="100%" style="stop-color:rgb(243,255,231)"/>
  </linearGradient>
  <path fill="url(#_lgradient_8)" d="M 165.685 11.947 C 239.74 11.947 250.324 22.504 250.324 96.491 L 250.324 155.742 C 250.324 229.728 239.74 240.285 165.685 240.285 L 90.315 240.285 C 16.26 240.285 5.676 229.728 5.676 155.742 L 5.676 96.491 C 5.676 22.504 16.26 11.947 90.315 11.947 L 165.685 11.947 Z"/>
 </g>
 <g opacity=".4">
  <linearGradient id="_lgradient_9" x1=".517" x2=".517" y1="0" y2="1">
   <stop offset="0%" style="stop-color:rgb(255,255,255)"/>
   <stop offset="12.5%" stop-opacity=".098" style="stop-color:rgb(255,255,255)"/>
   <stop offset="92.5%" stop-opacity=".098" style="stop-color:rgb(0,0,0)"/>
   <stop offset="100%" stop-opacity=".498" style="stop-color:rgb(0,0,0)"/>
  </linearGradient>
  <path fill="none" stroke="url(#_lgradient_9)" stroke-linecap="round" stroke-linejoin="round" stroke-width="4.077" d="M 165.685 11.947 C 239.74 11.947 250.324 22.504 250.324 96.491 L 250.324 155.742 C 250.324 229.728 239.74 240.285 165.685 240.285 L 90.315 240.285 C 16.26 240.285 5.676 229.728 5.676 155.742 L 5.676 96.491 C 5.676 22.504 16.26 11.947 90.315 11.947 L 165.685 11.947 Z" vector-effect="non-scaling-stroke"/>
 </g>
 <g filter="url(#J1UbZNdgiG4m4XSMqP2a5pHYTcWemACb)">
  <path fill="#464655" d="M 137.916 63.436 C 137.582 62.095 136.226 61.283 134.887 61.619 C 127.849 63.377 123.122 69.299 120.541 73.545 L 117.725 72.419 C 116.305 71.851 114.721 71.851 113.301 72.419 L 110.485 73.545 C 107.904 69.299 103.176 63.378 96.139 61.619 C 94.803 61.283 93.446 62.095 93.11 63.436 C 92.776 64.773 93.589 66.129 94.927 66.463 C 99.992 67.731 103.665 72.133 105.849 75.571 C 104.137 76.648 103.025 78.49 103.025 80.562 C 103.025 83.852 105.692 86.519 108.982 86.519 L 122.043 86.519 C 125.334 86.519 128.001 83.852 128.001 80.562 C 128.001 78.49 126.889 76.648 125.177 75.571 C 127.361 72.133 131.033 67.731 136.099 66.463 C 137.437 66.129 138.25 64.773 137.916 63.436 Z"/>
  <path fill="#464655" d="M 172.954 143.962 C 172.646 143.962 172.332 143.905 172.027 143.784 L 159.54 138.789 C 159.034 138.586 158.607 138.222 158.327 137.754 C 151.798 126.872 145.494 126.481 145.432 126.479 C 144.074 126.42 142.984 125.286 143.013 123.93 C 143.043 122.572 144.124 121.484 145.483 121.484 C 146.378 121.484 154.318 121.855 162.166 134.459 L 173.884 139.144 C 175.164 139.657 175.787 141.11 175.275 142.391 C 174.884 143.369 173.946 143.962 172.954 143.962 Z"/>
  <path fill="#464655" d="M 142.986 111.494 C 141.939 111.494 140.965 110.833 140.616 109.786 C 140.18 108.477 140.887 107.062 142.195 106.628 L 148.799 104.426 C 149.988 102.258 153.539 94.884 155.499 81.17 C 155.583 80.575 155.882 80.029 156.338 79.634 L 168.826 68.839 C 169.868 67.936 171.444 68.053 172.347 69.095 C 173.25 70.139 173.135 71.717 172.091 72.619 L 160.308 82.807 C 157.717 99.989 152.77 107.565 152.557 107.884 C 152.248 108.346 151.796 108.692 151.269 108.867 L 143.776 111.365 C 143.513 111.452 143.247 111.494 142.986 111.494 Z"/>
  <path fill="#464655" d="M 170.459 188.917 C 169.726 188.917 169.001 188.597 168.508 187.98 L 158.518 175.492 C 158.294 175.212 158.133 174.885 158.045 174.536 L 154.14 158.917 C 153.691 157.124 152.3 155.732 150.506 155.283 L 144.877 153.876 C 143.539 153.542 142.726 152.186 143.06 150.849 C 143.397 149.508 144.759 148.698 146.089 149.032 L 151.718 150.439 C 155.305 151.334 158.089 154.12 158.986 157.707 L 162.758 172.797 L 172.408 184.858 C 173.27 185.936 173.096 187.507 172.018 188.37 C 171.558 188.738 171.007 188.917 170.459 188.917 Z"/>
  <path fill="#464655" d="M 58.072 143.962 C 57.08 143.962 56.143 143.369 55.751 142.391 C 55.239 141.111 55.862 139.657 57.142 139.145 L 68.861 134.46 C 76.708 121.855 84.648 121.484 85.543 121.484 C 86.923 121.484 88.041 122.601 88.041 123.982 C 88.041 125.345 86.947 126.455 85.59 126.479 C 85.373 126.494 79.147 127.009 72.7 137.755 C 72.419 138.223 71.992 138.587 71.486 138.789 L 58.999 143.784 C 58.694 143.905 58.38 143.962 58.072 143.962 Z"/>
  <path fill="#464655" d="M 88.04 111.494 C 87.78 111.494 87.512 111.452 87.25 111.365 L 79.758 108.867 C 79.23 108.692 78.778 108.345 78.47 107.884 C 78.256 107.565 73.309 99.989 70.719 82.807 L 58.934 72.619 C 57.89 71.716 57.776 70.139 58.678 69.095 C 59.577 68.053 61.155 67.936 62.2 68.838 L 74.688 79.633 C 75.144 80.029 75.443 80.575 75.527 81.17 C 77.485 94.874 81.033 102.248 82.227 104.425 L 88.83 106.628 C 90.139 107.062 90.846 108.477 90.41 109.786 C 90.061 110.833 89.087 111.494 88.04 111.494 Z"/>
  <path fill="#464655" d="M 60.567 188.917 C 60.019 188.917 59.468 188.739 59.008 188.37 C 57.93 187.507 57.756 185.936 58.618 184.858 L 68.268 172.797 L 72.04 157.707 C 72.937 154.12 75.721 151.334 79.308 150.439 L 84.937 149.032 C 86.278 148.698 87.631 149.508 87.966 150.849 C 88.3 152.186 87.487 153.542 86.149 153.876 L 80.52 155.283 C 78.726 155.732 77.335 157.124 76.886 158.917 L 72.981 174.536 C 72.893 174.885 72.732 175.212 72.508 175.492 L 62.518 187.98 C 62.025 188.594 61.299 188.917 60.567 188.917 Z"/>
  <circle fill="#464655" cx="0" cy="0" r="1" transform="matrix(32.468,0,0,32.468,115.512,156.448)" vector-effect="non-scaling-stroke"/>
  <rect fill="#464655" width="54.945" height="14.985" x="88.04" y="111.49" transform="matrix(1,0,0,1,0,0)"/>
  <path fill="#5B5D6E" d="M 120.151 117.131 L 125.768 114.884 C 127.243 114.295 128.817 113.991 130.406 113.991 L 142.79 113.991 C 145.731 113.991 148.036 111.462 147.763 108.534 L 147.169 102.151 C 146.214 91.877 137.593 84.021 127.275 84.021 L 103.751 84.021 C 93.433 84.021 84.812 91.877 83.856 102.151 L 83.263 108.534 C 82.99 111.462 85.295 113.992 88.236 113.992 L 100.62 113.992 C 102.209 113.992 103.783 114.295 105.258 114.885 L 110.875 117.131 C 113.853 118.322 117.174 118.322 120.151 117.131 Z"/>
  <path fill="#5B5D6E" d="M 121.52 130.907 L 127.409 123.006 C 129.294 120.476 132.264 118.986 135.419 118.986 L 130.405 118.986 C 129.451 118.986 128.507 119.168 127.622 119.522 L 122.006 121.769 C 119.931 122.598 117.747 123.019 115.513 123.019 C 113.279 123.019 111.094 122.598 109.02 121.769 L 103.403 119.522 C 102.518 119.168 101.574 118.986 100.62 118.986 L 95.607 118.986 C 98.761 118.986 101.731 120.476 103.617 123.006 L 109.506 130.907 C 112.502 134.926 118.524 134.926 121.52 130.907 Z"/>
  <path fill="#5B5D6E" d="M 187.941 61.544 L 185.443 74.031 L 187.941 76.529 L 187.941 131.474 L 192.936 131.474 L 192.936 76.529 L 195.433 74.031 L 192.936 61.544 L 187.941 61.544 Z"/>
  <path fill="#C3E678" d="M 190.438 191.414 L 190.438 191.414 C 195.887 191.414 200.239 186.877 200.012 181.433 L 197.93 131.474 L 182.945 131.474 L 180.864 181.433 C 180.637 186.877 184.989 191.414 190.438 191.414 Z"/>
  <path fill="#A5D76E" d="M 187.947 181.432 L 189.486 131.474 L 182.946 131.474 L 180.864 181.432 C 180.637 186.876 184.989 191.414 190.438 191.414 C 191.361 191.414 192.233 191.242 193.076 191 C 190.018 189.81 187.807 185.955 187.947 181.432 Z"/>
  <path fill="#87C36E" d="M 190.438 183.922 L 190.438 183.922 C 189.059 183.922 187.94 182.803 187.94 181.424 L 187.94 141.464 C 187.94 140.085 189.059 138.967 190.438 138.967 L 190.438 138.967 C 191.817 138.967 192.936 140.085 192.936 141.464 L 192.936 181.424 C 192.936 182.803 191.817 183.922 190.438 183.922 Z"/>
  <rect fill="#464655" width="4.995" height="7.493" x="187.94" y="123.98" transform="matrix(1,0,0,1,0,0)"/>
  <path fill="#A5D76E" d="M 197.931 133.972 L 182.946 133.972 C 181.566 133.972 180.448 132.853 180.448 131.474 L 180.448 131.474 C 180.448 130.095 181.567 128.976 182.946 128.976 L 197.931 128.976 C 199.31 128.976 200.428 130.095 200.428 131.474 L 200.428 131.474 C 200.428 132.853 199.31 133.972 197.931 133.972 Z"/>
  <path fill="#87C36E" d="M 187.941 131.474 C 187.941 130.095 189.059 128.976 190.438 128.976 L 182.946 128.976 C 181.566 128.976 180.448 130.095 180.448 131.474 C 180.448 132.853 181.567 133.971 182.946 133.971 L 190.438 133.971 C 189.058 133.972 187.941 132.853 187.941 131.474 Z"/>
  <path fill="#C3E678" d="M 109.505 130.907 L 103.616 123.006 C 101.731 120.476 98.761 118.986 95.607 118.986 L 86.204 118.986 C 83.986 118.986 82.133 120.674 81.928 122.883 L 79.254 151.627 C 77.515 170.319 90.186 186.745 107.756 190.551 C 109.275 190.88 110.74 189.793 110.824 188.241 L 113.673 135.546 C 113.728 134.526 113.144 133.606 112.224 133.161 C 111.192 132.661 110.254 131.911 109.505 130.907 Z"/>
  <path fill="#C3E678" d="M 151.772 151.627 L 149.098 122.883 C 148.893 120.675 147.04 118.986 144.822 118.986 L 135.419 118.986 C 132.264 118.986 129.295 120.477 127.41 123.006 L 121.521 130.907 C 120.773 131.911 119.834 132.661 118.802 133.161 C 117.883 133.607 117.299 134.526 117.354 135.546 L 120.202 188.241 C 120.286 189.793 121.752 190.88 123.271 190.551 C 140.84 186.745 153.511 170.319 151.772 151.627 Z"/>
  <path fill="#505161" d="M 121.038 84.021 L 103.751 84.021 C 93.433 84.021 84.812 91.877 83.857 102.151 L 83.263 108.534 C 82.99 111.462 85.295 113.991 88.236 113.991 L 100.528 113.991 L 100.528 113.991 C 100.359 112.331 100.352 110.658 100.507 108.996 L 101.143 102.151 C 102.099 91.877 110.72 84.021 121.038 84.021 Z"/>
  <path fill="#A5D76E" d="M 98.19 152.323 L 100.714 120.458 C 99.181 119.54 97.44 118.986 95.607 118.986 L 86.204 118.986 C 83.986 118.986 82.133 120.674 81.928 122.883 L 79.254 151.627 C 77.515 170.319 90.186 186.745 107.756 190.551 C 109.137 190.85 110.42 189.954 110.715 188.628 C 102.135 179.951 97.049 166.725 98.19 152.323 Z"/>
 </g>
 <defs>
  <filter id="J1UbZNdgiG4m4XSMqP2a5pHYTcWemACb" width="204.857" height="189.87" x="25.57" y="35.54" filterUnits="userSpaceOnUse">
   <feGaussianBlur xmlns="http://www.w3.org/2000/svg" in="SourceGraphic" stdDeviation="4.294"/>
   <feOffset xmlns="http://www.w3.org/2000/svg" dx="0" dy="4" result="pf_100_offsetBlur"/>
   <feFlood xmlns="http://www.w3.org/2000/svg" flood-opacity=".4"/>
   <feComposite xmlns="http://www.w3.org/2000/svg" in2="pf_100_offsetBlur" operator="in" result="pf_100_dropShadow"/>
   <feBlend xmlns="http://www.w3.org/2000/svg" in="SourceGraphic" in2="pf_100_dropShadow" mode="normal"/>
  </filter>
 </defs>
</svg>
